X: 305728
M: 6/8
L: 1/8
K: C
EGc {d}cBA | Bdf fga | gec Adc | BcA G^F=F |\
EGc {d}cBA | Bdf fga | gec fdB | (d3 c2) H|]
d/e/ |\
fd/c/B/A/ Gcd | eg/f/e/d/ ceg | BA^c dfa | c2(d/c/) Bde |\
fef def | gfg d'ge | dag fed | cAG FE"^D.C."D |]
e |\


